static/assets/images/networks/moonriver-mono.svg

<svg width="202" height="256" viewBox="0 0 202 256" fill="none" xmlns="http://www.w3.org/2000/svg">
<path d="M98.8362 0C73.4477 0 49.099 10.0849 31.1466 28.0362C13.1943 45.9874 3.10881 70.3346 3.10881 95.7215C3.11053 101.769 3.67805 107.803 4.80402 113.744L17.1713 105.286C38.9136 90.3753 74.1756 90.3753 95.9179 105.286L115.944 119.01C135.54 132.433 167.284 132.433 186.863 119.01L192.632 115.059C195.483 101.146 195.204 86.7738 191.815 72.9821C188.427 59.1905 182.014 46.3249 173.04 35.3167C164.067 24.3086 152.758 15.4334 139.932 9.33381C127.106 3.23421 113.085 0.0629233 98.882 0.0493671L98.8362 0Z" fill="black"/>
<path d="M152.633 153.226C138.958 153.46 125.522 149.622 114.034 142.199L94.0394 128.497C83.1573 121.825 70.6415 118.294 57.8769 118.294C45.1122 118.294 32.5965 121.825 21.7144 128.497L8.78671 137.346C8.17832 137.763 7.49388 138.055 6.77238 138.207C6.05089 138.359 5.30651 138.368 4.58176 138.232C3.85701 138.097 3.16606 137.819 2.54839 137.417C1.93072 137.014 1.39837 136.494 0.981814 135.885C0.565262 135.277 0.272628 134.593 0.120608 133.871C-0.0314125 133.15 -0.0397914 132.405 0.0958639 131.681C0.231519 130.956 0.508581 130.265 0.91126 129.647C1.31394 129.03 1.83437 128.497 2.44276 128.081L15.3669 119.232C28.1234 111.29 42.8498 107.08 57.8769 107.08C72.9039 107.08 87.6304 111.29 100.387 119.232L120.381 132.934C130.089 138.874 141.249 142.017 152.63 142.017C164.011 142.017 175.171 138.874 184.878 132.934L192.47 127.743C193.078 127.326 193.763 127.033 194.484 126.881C195.206 126.729 195.95 126.721 196.675 126.857C197.4 126.992 198.091 127.269 198.708 127.672C199.326 128.075 199.858 128.595 200.275 129.203C200.691 129.812 200.984 130.496 201.136 131.218C201.288 131.939 201.296 132.683 201.161 133.408C201.025 134.133 200.748 134.824 200.345 135.441C199.943 136.059 199.422 136.591 198.814 137.008L191.226 142.203C179.74 149.624 166.306 153.462 152.633 153.226Z" fill="black"/>
<path d="M57.4627 193.424V139.344C57.4207 138.206 57.4691 137.067 57.6073 135.937C57.7755 134.448 58.4863 133.074 59.604 132.077C60.7217 131.079 62.1678 130.529 63.6658 130.53C65.1171 130.57 66.5029 131.143 67.5578 132.141C68.6126 133.138 69.2624 134.49 69.3825 135.937C69.6122 137.814 69.6782 139.708 69.5798 141.597V249.438C69.609 250.277 69.4712 251.114 69.1745 251.899C68.8777 252.685 68.428 253.404 67.8513 254.014C67.2746 254.625 66.5824 255.114 65.8149 255.455C65.0474 255.796 64.2199 255.981 63.3803 256C62.539 255.953 61.7159 255.736 60.9615 255.361C60.207 254.985 59.5369 254.46 58.9921 253.818C58.4473 253.175 58.0391 252.428 57.7925 251.622C57.5459 250.816 57.4662 249.969 57.5579 249.131V213.184L57.4627 193.424Z" fill="black"/>
<path d="M46.0893 166.203V193.078C46.0893 197.66 43.6223 200.722 40.1577 200.613C39.2557 200.521 38.3809 200.25 37.5837 199.818C36.7865 199.386 36.0825 198.8 35.5126 198.095C34.9426 197.39 34.5177 196.579 34.2624 195.709C34.0072 194.839 33.9265 193.927 34.0251 193.026V139.292C34.0251 134.583 36.7672 131.408 40.3339 131.591C43.9007 131.774 46.033 134.622 46.0506 139.323C46.107 148.286 46.0893 157.244 46.0893 166.203Z" fill="black"/>
<path d="M81.0095 166.167V147.274C81.0095 142.893 83.3321 140.063 86.7967 140.063C87.6704 140.104 88.5268 140.321 89.3147 140.701C90.1025 141.081 90.8055 141.616 91.3815 142.274C91.9575 142.933 92.3946 143.7 92.6666 144.532C92.9386 145.363 93.0399 146.24 92.9644 147.112C93.096 159.973 93.096 172.827 92.9644 185.674C93.0778 186.546 93.0038 187.432 92.7474 188.272C92.491 189.113 92.058 189.889 91.4776 190.55C90.8971 191.21 90.1824 191.739 89.3813 192.101C88.5801 192.462 87.711 192.649 86.8319 192.648C83.2828 192.613 81.013 189.924 80.9743 185.438V166.15L81.0095 166.167Z" fill="black"/>
<path d="M10.5912 170.111V151.217C10.5912 146.84 12.9173 144.007 16.3783 144.007C17.252 144.048 18.1085 144.265 18.8963 144.645C19.6841 145.025 20.3872 145.56 20.9631 146.218C21.5391 146.876 21.9762 147.644 22.2482 148.475C22.5202 149.306 22.6215 150.184 22.546 151.055C22.6635 163.917 22.6635 176.77 22.546 189.617C22.6576 190.489 22.5824 191.374 22.3253 192.214C22.0683 193.054 21.6353 193.83 21.0552 194.49C20.4751 195.149 19.761 195.678 18.9607 196.041C18.1604 196.403 17.2921 196.591 16.4136 196.592C12.8891 196.557 10.5912 193.868 10.5524 189.381V170.093L10.5912 170.111Z" fill="black"/>
<path d="M110.347 154.016C111.92 154.017 113.429 154.642 114.541 155.755C115.654 156.868 116.279 158.377 116.279 159.951V170.224C116.279 171.797 115.654 173.305 114.541 174.418C113.429 175.53 111.92 176.155 110.347 176.155C108.773 176.155 107.264 175.53 106.151 174.418C105.038 173.306 104.413 171.797 104.412 170.224V159.951C104.412 158.377 105.037 156.867 106.15 155.754C107.263 154.641 108.773 154.016 110.347 154.016Z" fill="black"/>
<path d="M133.855 163.013C135.429 163.014 136.937 163.64 138.049 164.753C139.162 165.866 139.787 167.375 139.787 168.948V226.576C139.787 228.149 139.162 229.658 138.049 230.77C136.937 231.883 135.428 232.508 133.855 232.508C133.076 232.508 132.304 232.355 131.585 232.057C130.865 231.759 130.211 231.322 129.66 230.771C129.109 230.22 128.672 229.566 128.374 228.846C128.076 228.127 127.923 227.355 127.923 226.576V168.948C127.923 168.169 128.076 167.397 128.374 166.677C128.672 165.957 129.109 165.303 129.659 164.752C130.21 164.201 130.864 163.763 131.584 163.465C132.304 163.167 133.076 163.013 133.855 163.013Z" fill="black"/>
<path d="M157.215 165.247C158.788 165.247 160.298 165.872 161.41 166.985C162.523 168.097 163.149 169.605 163.15 171.179V220.166C163.15 220.944 162.996 221.716 162.697 222.435C162.399 223.155 161.961 223.808 161.41 224.359C160.859 224.909 160.205 225.345 159.485 225.643C158.765 225.941 157.994 226.094 157.215 226.093C156.436 226.094 155.665 225.941 154.945 225.643C154.226 225.345 153.572 224.909 153.021 224.358C152.47 223.808 152.033 223.154 151.735 222.435C151.437 221.715 151.283 220.944 151.283 220.166V171.179C151.283 169.606 151.908 168.097 153.021 166.985C154.133 165.873 155.642 165.247 157.215 165.247Z" fill="black"/>
<path d="M180.871 159.662C182.444 159.662 183.953 160.287 185.065 161.399C186.178 162.511 186.803 164.02 186.803 165.593V186.717C186.803 188.29 186.178 189.799 185.065 190.911C183.953 192.023 182.444 192.648 180.871 192.648C179.298 192.648 177.789 192.023 176.677 190.911C175.564 189.799 174.939 188.29 174.939 186.717V165.593C174.939 164.02 175.564 162.511 176.677 161.399C177.789 160.287 179.298 159.662 180.871 159.662Z" fill="black"/>
</svg>

<svg xmlns="http://www.w3.org/2000/svg" fill="none" viewBox="0 0 202 256"><path fill="#000" d="M98.836 0a95.73 95.73 0 0 0-67.69 28.036A95.72 95.72 0 0 0 3.11 95.722a97 97 0 0 0 1.695 18.022l12.367-8.458c21.743-14.91 57.005-14.91 78.747 0l20.026 13.724c19.596 13.423 51.34 13.423 70.919 0l5.769-3.951a95.769 95.769 0 0 0-19.592-79.742A95.79 95.79 0 0 0 98.882.049z"/><path fill="#000" d="M152.633 153.226a68.95 68.95 0 0 1-38.599-11.027l-19.995-13.702a69.18 69.18 0 0 0-72.325 0l-12.927 8.849a5.6 5.6 0 0 1-4.205.886 5.614 5.614 0 0 1-2.14-10.151l12.925-8.849a80.43 80.43 0 0 1 85.02 0l19.994 13.702a61.79 61.79 0 0 0 64.497 0l7.592-5.191a5.61 5.61 0 0 1 6.238-.071c.618.403 1.15.923 1.567 1.531a5.63 5.63 0 0 1 .886 4.205 5.6 5.6 0 0 1-2.347 3.6l-7.588 5.195a68.93 68.93 0 0 1-38.593 11.023"/><path fill="#000" d="M57.463 193.424v-54.08a21.5 21.5 0 0 1 .144-3.407 6.087 6.087 0 0 1 6.059-5.407 5.9 5.9 0 0 1 5.716 5.407c.23 1.877.296 3.771.198 5.66v107.841a6.34 6.34 0 0 1-3.765 6.017 6.4 6.4 0 0 1-2.435.545 6.21 6.21 0 0 1-4.388-2.182 6.2 6.2 0 0 1-1.434-4.687v-35.947zM46.09 166.203v26.875c0 4.582-2.468 7.644-5.932 7.535a6.87 6.87 0 0 1-4.645-2.518 6.87 6.87 0 0 1-1.488-5.069v-53.734c0-4.709 2.742-7.884 6.309-7.701s5.699 3.031 5.717 7.732c.056 8.963.038 17.921.038 26.88M81.01 166.167v-18.893c0-4.381 2.322-7.211 5.787-7.211a6.497 6.497 0 0 1 6.167 7.049q.198 19.292 0 38.562a6.17 6.17 0 0 1-1.486 4.876 6.18 6.18 0 0 1-4.646 2.098c-3.55-.035-5.819-2.724-5.858-7.21V166.15zM10.591 170.111v-18.894c0-4.377 2.326-7.21 5.787-7.21a6.497 6.497 0 0 1 6.168 7.048q.176 19.292 0 38.562a6.188 6.188 0 0 1-6.132 6.975c-3.525-.035-5.823-2.724-5.862-7.211v-19.288zM110.347 154.016a5.934 5.934 0 0 1 5.932 5.935v10.273a5.93 5.93 0 0 1-5.932 5.931 5.937 5.937 0 0 1-5.935-5.931v-10.273a5.936 5.936 0 0 1 5.935-5.935M133.855 163.013a5.93 5.93 0 0 1 4.194 1.74 5.93 5.93 0 0 1 1.738 4.195v57.628a5.93 5.93 0 0 1-1.738 4.194 5.93 5.93 0 0 1-8.389.001 5.93 5.93 0 0 1-1.737-4.195v-57.628a5.94 5.94 0 0 1 1.736-4.196 5.93 5.93 0 0 1 4.196-1.739M157.215 165.247c1.573 0 3.083.625 4.195 1.738a5.93 5.93 0 0 1 1.74 4.194v48.987a5.927 5.927 0 0 1-5.935 5.927 5.92 5.92 0 0 1-4.194-1.735 5.92 5.92 0 0 1-1.738-4.192v-48.987a5.933 5.933 0 0 1 5.932-5.932M180.871 159.662a5.93 5.93 0 0 1 5.932 5.931v21.124a5.93 5.93 0 0 1-5.932 5.931 5.93 5.93 0 0 1-5.932-5.931v-21.124a5.93 5.93 0 0 1 5.932-5.931"/></svg>
